Adwaita++-Dark/status/symbolic/arch-error-symbolic.svg

<svg height="16" width="16" xmlns="http://www.w3.org/2000/svg">
  <path d="m8 1c-1.825 1.725-5 3-6 3.25 0 4.75 2.25 10 6 10.75 3.75-.75 6-6 6-10.75-1-.25-4.175-1.525-6-3.25zm-3 4h1l2 2 2-2h1v1l-2 2 2 2v1h-1l-2-2-2 2h-1v-1l2-2-2-2z" fill="#3584e4"/>
</svg>

<svg xmlns="http://www.w3.org/2000/svg" width="16" height="16" version="1.1">
 <path class="warning" d="M 8 1 C 6.175 2.725 3 4 2 4.25 C 2 9 4.25 14.25 8 15 C 11.75 14.25 14 9 14 4.25 C 13 4 9.825 2.725 8 1 z M 5 5 L 6 5 L 8 7 L 10 5 L 11 5 L 11 6 L 9 8 L 11 10 L 11 11 L 10 11 L 8 9 L 6 11 L 5 11 L 5 10 L 7 8 L 5 6 L 5 5 z" style="fill:#3584e4"/>
</svg>
